X:12
T:The Highroad to Linton
R:Reel
O:Ireland
M:4/4
C:Trad.-Winnie Chafe
K:A
e2|:ceef a2 (ae)|f2 (fe) a2 (ae)|ceef a2 (ae)|faec B2 A2:|
|:cee=g fddf|ecce fBBf|cee=g fddf|ecac B2 A2:|
|:a2 a2 ef a2|(ef)ae faef|a2 a2 afae|faec B2 A2:|
|:c/2c/2c ec defd|c/2c/2c (ec) BcdB|c/2c/2c (ec) defg|afec B2 A2:||
